art/standard/gamepad/ouya/leftshoulder.svg

<svg width="100px" height="100px" preserveAspectRatio="none" version="1.1" viewBox="0 0 100 100" xmlns="http://www.w3.org/2000/svg">
 <g id="OUYA">
  <g>
   <path d="m92.4 41.55c-0.56667-3.3667-2.1667-5.95-4.8-7.75-14.233-4.2333-28.733-6.85-43.5-7.85-11.233 0.3-19.367 1.7167-24.4 4.25-7.3667 5.5-11.717 12.367-13.05 20.6-0.36667 4.6333 2.8167 8.55 9.55 11.75 17.033 5.6333 38.333 9.4833 63.9 11.55 6.4667-0.03333 10.567-3.3333 12.3-9.9 1.2667-8.0333 1.2667-15.583 0-22.65" fill="#1e1e1e"/>
   <path d="m80.25 48.25c-0.66667-2.4333-2.1333-4.4-4.4-5.9-18.4-3.9667-35.5-6.4833-51.3-7.55-3.1333 1.2-5.75 3.45-7.85 6.75-2.0333 3.1-3.4167 6.45-4.15 10.05-0.33333 1.8667 1.4833 3.8167 5.45 5.85 17.767 4.6333 36.783 8 57.05 10.1 2.8-0.1 4.5333-1.85 5.2-5.25v-14.05" fill="#3b3b3b"/>
   <path d="m56.6 45.5-3.15-0.4v14.15l8.9 1.2v-2.9l-5.75-0.8v-11.25m15.7 2.1-2.8-0.4-4.65 3.3 1.7 2.2 2.85-2.15v10.8l2.9 0.4v-14.15z" fill="#8C8C8C"/>
  </g>
  <path d="m92.4 64.2q1.9-12.05 0-22.65-0.85-5.05-4.8-7.75-21.35-6.35-43.5-7.85-16.85 0.45-24.4 4.25-11.05 8.25-13.05 20.6-0.55 6.95 9.55 11.75 25.55 8.45 63.9 11.55 9.7-0.05 12.3-9.9z" fill="none" stroke="#000" stroke-linecap="round" stroke-linejoin="round" stroke-width="5"/>
  <path d="m75.85 42.35q3.4 2.25 4.4 5.9v14.05q-1 5.1-5.2 5.25-30.4-3.15-57.05-10.1-5.95-3.05-5.45-5.85 1.1-5.4 4.15-10.05 3.15-4.95 7.85-6.75 23.7 1.6 51.3 7.55z" fill="none" stroke="#4F4F4F" stroke-linecap="round" stroke-linejoin="round" stroke-width="4"/>
 </g>
</svg>

<svg xmlns="http://www.w3.org/2000/svg" version="1.1" xmlns:xlink="http://www.w3.org/1999/xlink" preserveAspectRatio="none" x="0px" y="0px" width="100px" height="100px" viewBox="0 0 100 100">
<defs/>

<g id="OUYA">
<g>
<g>
<g>
<path fill="#1E1E1E" stroke="none" d="
M 92.4 41.55
Q 91.55 36.5 87.6 33.8 66.25 27.45 44.1 25.95 27.25 26.4 19.7 30.2 8.65 38.45 6.65 50.8 6.1 57.75 16.2 62.55 41.75 71 80.1 74.1 89.8 74.05 92.4 64.2 94.3 52.15 92.4 41.55
M 75.85 42.35
Q 79.25 44.6 80.25 48.25
L 80.25 62.3
Q 79.25 67.4 75.05 67.55 44.65 64.4 18 57.45 12.05 54.4 12.55 51.6 13.65 46.2 16.7 41.55 19.85 36.6 24.55 34.8 48.25 36.4 75.85 42.35 Z"/>

<path fill="#3B3B3B" stroke="none" d="
M 80.25 48.25
Q 79.25 44.6 75.85 42.35 48.25 36.4 24.55 34.8 19.85 36.6 16.7 41.55 13.65 46.2 12.55 51.6 12.05 54.4 18 57.45 44.65 64.4 75.05 67.55 79.25 67.4 80.25 62.3
L 80.25 48.25
M 69.5 47.2
L 72.3 47.6 72.3 61.75 69.4 61.35 69.4 50.55 66.55 52.7 64.85 50.5 69.5 47.2
M 53.45 45.1
L 56.6 45.5 56.6 56.75 62.35 57.55 62.35 60.45 53.45 59.25 53.45 45.1 Z"/>

<path fill="#8C8C8C" stroke="none" d="
M 56.6 45.5
L 53.45 45.1 53.45 59.25 62.35 60.45 62.35 57.55 56.6 56.75 56.6 45.5
M 72.3 47.6
L 69.5 47.2 64.85 50.5 66.55 52.7 69.4 50.55 69.4 61.35 72.3 61.75 72.3 47.6 Z"/>
</g>
</g>

<g>
<path stroke="#000000" stroke-width="5" stroke-linejoin="round" stroke-linecap="round" fill="none" d="
M 92.4 64.2
Q 94.3 52.15 92.4 41.55 91.55 36.5 87.6 33.8 66.25 27.45 44.1 25.95 27.25 26.4 19.7 30.2 8.65 38.45 6.65 50.8 6.1 57.75 16.2 62.55 41.75 71 80.1 74.1 89.8 74.05 92.4 64.2 Z"/>
</g>

<g>
<path stroke="#4F4F4F" stroke-width="4" stroke-linejoin="round" stroke-linecap="round" fill="none" d="
M 75.85 42.35
Q 79.25 44.6 80.25 48.25
L 80.25 62.3
Q 79.25 67.4 75.05 67.55 44.65 64.4 18 57.45 12.05 54.4 12.55 51.6 13.65 46.2 16.7 41.55 19.85 36.6 24.55 34.8 48.25 36.4 75.85 42.35 Z"/>
</g>
</g>
</g>
</svg>
